X:1
T:Title
%%score { ( 1 3 ) | ( 2 4 ) }
L:1/8
Q:1/4=100
M:6/8
K:G
V:1 treble nm="Grand Piano"
V:3 treble 
V:2 bass 
V:4 bass 
V:1
 BBB B2 A | G3 D3 | A[EA][FA] A2 D | B6 | BBB B2 A | G3 E3 | [^CA][DA][GA] [GB]2 [GA] | [Fd]6 | %8
w: B.~T.~Worden * * * *||||||||
 [Fc][Fc][Fc] [Fc]2 [FA] | [GB]3 [DG]3 | [^DB][DF][DF] [DB]2 [DA] | [EG]6 | %12
w: ||||
 [EG][DF]E [EG][DF][CE] | [B,D]3 [DG]3 | [DA][EA][FA] A2 D | B6 | z3 .d3 | [Ec]3 E3 | FFG B2 A | %19
w: |||||||
 [B,G]6 |] %20
w: |
V:2
 [G,D][G,D][G,D] [G,D]2 [G,C] | [G,B,]3 [G,B,]3 | [D,F,D][D,G,][D,A,] [D,F,D]2 [F,A,] | [G,D]6 | %4
 [G,D][G,D][G,D] [G,D]2 [D,F,C] | [E,G,B,]3 [C,G,C]3 | [A,,G,][A,,F,][A,,E,] [A,,A,]2 [^C,A,] | %7
 [D,A,]6 | [D,A,][D,A,][D,A,] [D,A,]2 [D,D] | [G,D]3 [G,B,]3 | %10
 [B,,B,][B,,B,][B,,B,] [B,,B,]2 [B,,B,] | [E,B,]6 | [C,C][C,C][C,C] [C,G,]2 [C,G,] | %13
 [G,,G,]3 [B,,G,]3 | [D,F,][D,G,][D,A,] [D,F,D]2 [F,A,] | [G,D]6 | [G,B,G][G,C]G, z C[G,B,G] | %17
 [C,A,]3 [C,A,]3 | [D,A,D][D,A,C][D,G,B,] [D,F,D]2 [D,F,C] | [G,,G,]6 |] %20
V:3
 x6 | x6 | x6 | x6 | x6 | x6 | x6 | x6 | x6 | x6 | x6 | x6 | x6 | x6 | x6 | x6 | %16
 d[Ad][DBd] [DB]Ad | x6 | x6 | x6 |] %20
V:4
 x6 | x6 | x6 | x6 | x6 | x6 | x6 | x6 | x6 | x6 | x6 | x6 | x6 | x6 | x6 | x6 | z3 .G,3 | x6 | %18
 x6 | x6 |] %20

